X: 1
T: the Tocher Band
C: Muriel Johnstone
R: reel
Z: 2012 John Chambers <jc:trillian.mit.edu>
B: Leeds Silver Jubilee
M: C|
L: 1/8
K: G
d2 |\
"G"BGdD "C"E2EG | "G"Dd^cd BdGB |\
"Am"cAeE A2AG | "D7"Fd^cd edcd | "G"BGdD "C"E2EG |
"G"Dd^cd BdGB | "Am"EAce "D7"DFAd | "G"B2"C"G2 "G"G2 :|\
|: "G7"g2 |\
"C"e2^de "D7"FAce | "G"d2^cd DGBd |
"Am"c2Bc "D7"FAce | "G"dBgB "G7"fBgB | "C"e2^de "D7"FAce |\
"G"d2^cd DGBd | "Am"ecAE "D7"DFAd | "G"B2"C"G2 "G"G2 :|
